src/lib/packages/icons/src/assets/filled/pinterest.svg

<svg width="24" height="24" viewBox="0 0 24 24" fill="none" xmlns="http://www.w3.org/2000/svg">
<path d="M22 12C22 17.52 17.52 22 12 22C10.97 22 9.98999 21.84 9.04999 21.56C9.45999 20.91 10.11 19.77 10.35 18.86C10.47 18.4 10.97 16.5 10.97 16.5C11.29 17.12 12.24 17.64 13.25 17.64C16.25 17.64 18.41 14.88 18.41 11.45C18.41 8.02 15.73 5.7 12.28 5.7C7.98003 5.7 5.70001 8.58 5.70001 11.72C5.70001 13.18 6.47997 15 7.71997 15.58C7.90997 15.67 8.00999 15.63 8.04999 15.45C8.07999 15.31 8.25002 14.63 8.33002 14.32C8.36002 14.22 8.33001 14.11 8.26001 14.03C7.85001 13.53 7.52002 12.62 7.52002 11.76C7.52002 9.55999 9.18001 7.44 12.01 7.44C14.46 7.44 16.17 9.11001 16.17 11.49C16.17 14.18 14.81 16.05 13.04 16.05C12.07 16.05 11.33 15.24 11.57 14.25C11.85 13.07 12.39 11.79 12.39 10.94C12.39 10.17 11.98 9.53 11.13 9.53C10.13 9.53 9.33002 10.57 9.33002 11.95C9.33002 12.83 9.63 13.43 9.63 13.43C9.63 13.43 8.64002 17.6 8.46002 18.38C8.25002 19.28 8.35 20.56 8.44 21.34C4.68 19.9 2 16.27 2 12C2 6.48 6.48 2 12 2C17.52 2 22 6.48 22 12Z" fill="currentColor"/>
</svg>

<svg xmlns="http://www.w3.org/2000/svg" width="24" height="24" fill="none"><path fill="currentColor" d="M22 12c0 5.52-4.48 10-10 10-1.03 0-2.01-.16-2.95-.44.41-.65 1.06-1.79 1.3-2.7l.62-2.36c.32.62 1.27 1.14 2.28 1.14 3 0 5.16-2.76 5.16-6.19 0-3.43-2.68-5.75-6.13-5.75-4.3 0-6.58 2.88-6.58 6.02 0 1.46.78 3.28 2.02 3.86.19.09.29.05.33-.13.03-.14.2-.82.28-1.13.03-.1 0-.21-.07-.29-.41-.5-.74-1.41-.74-2.27 0-2.2 1.66-4.32 4.49-4.32 2.45 0 4.16 1.67 4.16 4.05 0 2.69-1.36 4.56-3.13 4.56-.97 0-1.71-.81-1.47-1.8.28-1.18.82-2.46.82-3.31 0-.77-.41-1.41-1.26-1.41-1 0-1.8 1.04-1.8 2.42 0 .88.3 1.48.3 1.48s-.99 4.17-1.17 4.95c-.21.9-.11 2.18-.02 2.96C4.68 19.9 2 16.27 2 12 2 6.48 6.48 2 12 2s10 4.48 10 10Z"/></svg>
